**kern
*staff1
!!pagebreak:original
*I"P1
=1-
*clefF4
*k[]
*M3/4
4E\
4r
4D\
=2
4C/
4D\
4BB/
=3
4C/
8EE/L
8FF/J
4GG/
=4
4BB/
8EE/L
8FF/J
4GG/
=5
8AA/L
8AA/J
8AA/L
8AA/J
8AA/L
8BB/J
=6
8C/L
8D/J
8E\L
8F\J
8G\L
8A\J
=7
4B-\
8A\L
8B-\J
8A\L
8B-\J
=8
4G\
=
*-
